; generated by PrusaSlicer 2.9.1 on 2025-03-30 at 01:05:15 UTC

; 

; external perimeters extrusion width = 0.45mm
; perimeters extrusion width = 0.45mm
; infill extrusion width = 0.45mm
; solid infill extrusion width = 0.45mm
; top infill extrusion width = 0.40mm
; first layer extrusion width = 0.42mm

M73 P0 R17
M73 Q0 S17

; printing object frencie_v2.stl id:0 copy 0
; stop printing object frencie_v2.stl id:0 copy 0
; printing object frencie_v2.stl id:0 copy 1
; stop printing object frencie_v2.stl id:0 copy 1

;TYPE:Custom
M862.3 P "MK3S" ; printer model check
M862.1 P0.5 ; nozzle diameter check
M115 U3.8.1 ; tell printer latest fw version
G90 ; use absolute coordinates
M83 ; extruder relative mode
M104 S250 ; set extruder temp
M140 S85 ; set bed temp
M190 S85 ; wait for bed temp
M109 S250 ; wait for extruder temp
G28 W ; home all without mesh bed level
G80 N5 R5 ; mesh bed leveling
G1 Y-3.0 F1000.0 ; go outside print area
G92 E0.0
G1 X60.0 E9.0 F1000.0 ; intro line
G1 X100.0 E12.5 F1000.0 ; intro line
G92 E0.0
M221 S95
G21 ; set units to millimeters
G90 ; use absolute coordinates
M83 ; use relative distances for extrusion

M900 K0.08 ; Filament gcode LA 1.5
M900 K45 ; Filament gcode LA 1.0




M107
;LAYER_CHANGE
;Z:0.2
;HEIGHT:0.2
G1 E-1 F2100
G1 Z.4 F720
G1 X97.093 Y88.764 F10800
G1 Z.2 F720
G1 E1 F2100
M204 S800
;TYPE:Skirt/Brim
;WIDTH:0.42
G1 F1200
G1 X97.983 Y87.87 E.03955
G1 X99.37 Y86.848 E.05402
G1 X104.48 Y84.01 E.18327
G1 X105.666 Y83.604 E.0393
G1 X106.79 Y83.454 E.03555
G1 X147.684 Y83.454 E1.2822
G1 X149.054 Y83.576 E.04313
G1 X150.249 Y83.956 E.03932
G1 X162.673 Y90.589 E.44159
G1 X163.653 Y91.371 E.03931
M73 Q1 S17
G1 X164.446 Y92.342 E.03931
G1 X165.017 Y93.459 E.03933
M73 P1 R17
G1 X165.34 Y94.67 E.0393
G1 X165.823 Y100.496 E.1833
G1 X165.746 Y102.217 E.05401
G1 X165.499 Y103.454 E.03955
G1 X162.689 Y114.181 E.34769
G1 X162.502 Y114.657 E.01604
G1 X157.669 Y123.647 E.32003
G1 X156.887 Y124.603 E.03873
G1 X156.271 Y125.152 E.02587
G1 X154.861 Y125.998 E.05156
G1 X153.689 Y126.387 E.03872
G1 X152.518 Y126.551 E.03707
G1 X111.623 Y126.551 E1.28223
G1 X110.338 Y126.483 E.04035
G1 X109.139 Y126.185 E.03874
G1 X108.201 Y125.779 E.03205
G1 X87.667 Y114.815 E.72986
G1 X86.807 Y114.261 E.03208
G1 X85.893 Y113.43 E.03873
G1 X85.151 Y112.444 E.03869
G1 X84.605 Y111.335 E.03876
G1 X84.277 Y110.145 E.0387
G1 X84.177 Y108.914 E.03872
G1 X84.309 Y107.686 E.03872
G1 X84.668 Y106.504 E.03873
G1 X89.45 Y97.487 E.32002
G1 X89.742 Y97.067 E.01604
G1 X97.043 Y88.82 E.34535
M204 S1000
;WIPE_START
G1 F8640
G1 X97.093 Y88.764 E-.01733
G1 X97.983 Y87.87 E-.29128
G1 X99.37 Y86.848 E-.39781
G1 X100.482 Y86.231 E-.29358
;WIPE_END
G1 Z.4 F720
; printing object frencie_v2.stl id:0 copy 0
G1 X142.691 Y108.84 F10800
G1 Z.2 F720
G1 E1 F2100
M204 S800
;TYPE:External perimeter
;WIDTH:0.419999
G1 F1200
G1 X142.047 Y108.693 E.02071
G1 X141.387 Y108.433 E.02224
G1 X140.914 Y108.243 E.01598
G1 X139.914 Y107.653 E.0364
G1 X138.992 Y106.9 E.03732
G1 X138.307 Y106.137 E.03215
G1 X137.794 Y105.395 E.02828
;WIDTH:0.468489
G1 X137.684 Y105.268 E.00595
;WIDTH:0.516979
G1 X137.574 Y105.14 E.00665
;WIDTH:0.565469
G1 X137.464 Y105.012 E.00733
G1 X137.339 Y104.647 E.01676
;WIDTH:0.523388
G1 X137.214 Y104.282 E.01541
;WIDTH:0.481307
G1 X137.089 Y103.917 E.01406
;WIDTH:0.439226
G1 X137.004 Y103.274 E.02137
;WIDTH:0.480588
G1 X136.975 Y103.214 E.00243
;WIDTH:0.525155
G1 X136.945 Y103.155 E.00265
;WIDTH:0.569722
G1 X136.915 Y103.096 E.0029
;WIDTH:0.614289
G1 X136.886 Y103.037 E.00312
;WIDTH:0.658856
G1 X136.856 Y102.977 E.00344
;WIDTH:0.703423
G1 X136.827 Y102.918 E.00361
;WIDTH:0.747989
G1 X136.797 Y102.859 E.00388
;WIDTH:0.792556
G1 X136.767 Y102.799 E.00418
G1 X136.748 Y102.863 E.00416
;WIDTH:0.747989
G1 X136.729 Y102.928 E.00397
;WIDTH:0.703423
G1 X136.709 Y102.992 E.00368
;WIDTH:0.658856
G1 X136.69 Y103.056 E.00342
;WIDTH:0.614289
G1 X136.671 Y103.12 E.00317
;WIDTH:0.569722
G1 X136.652 Y103.184 E.00292
;WIDTH:0.525155
G1 X136.632 Y103.248 E.00269
;WIDTH:0.480588
G1 X136.613 Y103.312 E.00243
;WIDTH:0.436021
G1 X136.689 Y103.921 E.02006
;WIDTH:0.483498
G1 X136.763 Y104.311 E.01454
;WIDTH:0.532266
G1 X136.838 Y104.702 E.0162
;WIDTH:0.566674
G1 X136.972 Y105.186 E.02187
G1 X136.991 Y105.366 E.00788
;WIDTH:0.517783
G1 X137.01 Y105.546 E.00715
;WIDTH:0.468891
G1 X137.029 Y105.726 E.00641
;WIDTH:0.419999
G1 X137.465 Y106.766 E.03536
G1 X137.997 Y107.627 E.03173
G1 X138.909 Y108.685 E.0438
G1 X138.95 Y108.85 E.00533
G1 X138.836 Y108.984 E.00552
G1 X132.037 Y111.7 E.22956
G1 X131.311 Y111.681 E.02277
G1 X130.56 Y111.464 E.02451
G1 X129.94 Y111.081 E.02285
G1 X129.408 Y110.515 E.02436
G1 X129.082 Y109.917 E.02135
G1 X128.895 Y109.164 E.02433
G1 X128.903 Y108.483 E.02135
G1 X129.088 Y107.782 E.02273
G1 X133.474 Y99.557 E.29226
G1 X134.182 Y98.873 E.03087
G1 X134.922 Y98.405 E.02745
G1 X135.773 Y98.076 E.02861
G1 X136.672 Y97.922 E.0286
G1 X137.307 Y97.939 E.01992
G1 X140.929 Y91.154 E.24115
G1 X141.395 Y90.592 E.02289
G1 X141.966 Y90.138 E.02287
G1 X142.619 Y89.811 E.0229
G1 X143.662 Y89.539 E.0338
G1 X143.856 Y89.603 E.00641
M73 Q2 S17
G1 X143.892 Y89.767 E.00526
G1 X143.492 Y91.376 E.05198
G1 X143.319 Y92.629 E.03966
;WIDTH:0.458184
G1 X143.334 Y92.779 E.00521
;WIDTH:0.496368
G1 X143.349 Y92.928 E.00565
;WIDTH:0.534553
G1 X143.363 Y93.077 E.00612
;WIDTH:0.572737
G1 X143.378 Y93.226 E.0066
G1 X143.349 Y93.879 E.0288
;WIDTH:0.554381
G1 X143.364 Y94.283 E.01719
M73 P2 R17
;WIDTH:0.523814
G1 X143.379 Y94.688 E.01621
;WIDTH:0.493246
G1 X143.466 Y95.407 E.02712
;WIDTH:0.460196
G1 X143.554 Y96.126 E.02513
;WIDTH:0.427145
G1 X143.741 Y96.945 E.02684
;WIDTH:0.470589
G1 X143.779 Y97 E.00238
;WIDTH:0.516673
G1 X143.817 Y97.055 E.00263
;WIDTH:0.562757
G1 X143.855 Y97.11 E.00289
;WIDTH:0.608841
G1 X143.893 Y97.164 E.00311
;WIDTH:0.654926
G1 X143.931 Y97.219 E.0034
;WIDTH:0.70101
G1 X143.969 Y97.274 E.00366
;WIDTH:0.747094
G1 X144.007 Y97.329 E.00391
;WIDTH:0.793178
G1 X144.045 Y97.383 E.00412
G1 X144.053 Y97.317 E.00415
;WIDTH:0.747094
G1 X144.061 Y97.251 E.00389
;WIDTH:0.70101
G1 X144.07 Y97.185 E.00364
;WIDTH:0.654926
G1 X144.078 Y97.119 E.00338
;WIDTH:0.608841
G1 X144.087 Y97.053 E.00313
;WIDTH:0.562757
G1 X144.095 Y96.987 E.00287
;WIDTH:0.516673
G1 X144.103 Y96.921 E.00262
;WIDTH:0.470589
G1 X144.112 Y96.855 E.00237
;WIDTH:0.431509
G1 X143.986 Y96.327 E.01754
;WIDTH:0.458868
G1 X143.919 Y95.719 E.02116
;WIDTH:0.486226
G1 X143.852 Y95.112 E.02251
;WIDTH:0.493246
G1 X143.828 Y94.688 E.0159
;WIDTH:0.523814
G1 X143.844 Y94.297 E.01565
;WIDTH:0.554381
G1 X143.859 Y93.907 E.0166
;WIDTH:0.568847
G1 X143.899 Y93.323 E.0256
G1 X143.964 Y93.13 E.00891
;WIDTH:0.519231
G1 X144.03 Y92.937 E.00808
;WIDTH:0.469615
G1 X144.095 Y92.744 E.00723
;WIDTH:0.419999
G1 X144.26 Y91.967 E.02491
G1 X144.72 Y90.651 E.04371
G1 X146.079 Y88.102 E.09057
G1 X146.476 Y87.686 E.01803
G1 X147.01 Y87.386 E.0192
G1 X147.523 Y87.254 E.01661
G1 X148.094 Y87.269 E.01791
G1 X148.645 Y87.44 E.01809
G1 X149.275 Y87.891 E.02429
G1 X149.716 Y88.358 E.02014
G1 X150.02 Y88.799 E.01679
G1 X150.193 Y89.078 E.01029
G1 X150.453 Y89.729 E.02198
G1 X150.581 Y90.37 E.02049
G1 X150.898 Y91.336 E.03188
G1 X151.31 Y92.265 E.03186
G1 X151.727 Y92.999 E.02647
G1 X152.496 Y94.19 E.04445
G1 X152.48 Y94.328 E.00436
;WIDTH:0.421439
G1 X150.638 Y97.778 E.12309
G1 X150.223 Y98.139 E.01731
;WIDTH:0.419999
G1 X149.716 Y98.241 E.01622
G1 X149.23 Y98.104 E.01583
G1 X148.847 Y97.738 E.01661
G1 X148.68 Y97.244 E.01635
G1 X148.695 Y97.107 E.00432
G1 X148.52 Y97.021 E.00611
G1 X148.261 Y96.992 E.00817
G1 X148.064 Y97.028 E.00628
G1 X147.836 Y97.178 E.00856
G1 X147.692 Y97.392 E.00809
G1 X147.623 Y97.979 E.01853
G1 X147.705 Y98.613 E.02004
G1 X147.938 Y99.209 E.02006
G1 X148.308 Y99.73 E.02004
G1 X148.793 Y100.146 E.02003
G1 X149.415 Y100.458 E.02182
G1 X149.85 Y100.705 E.01568
G1 X150.154 Y100.841 E.01044
G1 X150.645 Y100.978 E.01598
G1 X151.284 Y100.995 E.02004
G1 X151.908 Y100.857 E.02004
G1 X152.48 Y100.572 E.02004
G1 X152.93 Y100.188 E.01855
G1 X153.028 Y99.95 E.00807
G1 X153.026 Y99.677 E.00856
G1 X152.864 Y99.376 E.01072
G1 X152.69 Y99.227 E.00718
G1 X152.609 Y99.197 E.00271
G1 X152.424 Y99.325 E.00705
G1 X151.914 Y99.419 E.01626
G1 X151.422 Y99.271 E.01611
G1 X151.056 Y98.923 E.01583
G1 X150.892 Y98.407 E.01698
G1 X150.978 Y97.941 E.01486
G1 X152.813 Y94.505 E.12213
G1 X152.979 Y94.405 E.00608
G1 X154.134 Y94.406 E.03621
G1 X155.151 Y94.334 E.03197
G1 X156.152 Y94.163 E.03184
G1 X157.125 Y93.895 E.03164
G1 X157.728 Y93.642 E.0205
G1 X158.447 Y93.485 E.02307
G1 X159.183 Y93.464 E.02309
G1 X159.874 Y93.573 E.02193
G1 X160.617 Y93.832 E.02467
G1 X161.082 Y94.185 E.0183
G1 X161.424 Y94.644 E.01795
G1 X161.626 Y95.178 E.0179
G1 X161.675 Y95.748 E.01794
G1 X161.567 Y96.305 E.01779
G1 X160.2 Y98.884 E.09152
G1 X159.363 Y100.005 E.04386
G1 X158.794 Y100.592 E.02563
;WIDTH:0.458183
G1 X158.707 Y100.708 E.00501
;WIDTH:0.496366
G1 X158.621 Y100.824 E.00544
;WIDTH:0.53455
G1 X158.535 Y100.94 E.0059
;WIDTH:0.572733
G1 X158.448 Y101.056 E.00639
G1 X157.958 Y101.435 E.02729
;WIDTH:0.55438
G1 X157.642 Y101.665 E.01662
;WIDTH:0.523813
G1 X157.326 Y101.896 E.01565
;WIDTH:0.493245
G1 X156.718 Y102.239 E.02614
;WIDTH:0.460107
G1 X156.109 Y102.582 E.02425
;WIDTH:0.426968
G1 X155.371 Y102.864 E.02523
;WIDTH:0.470556
G1 X155.321 Y102.908 E.00237
;WIDTH:0.516646
G1 X155.271 Y102.951 E.0026
;WIDTH:0.562735
G1 X155.221 Y102.995 E.00288
;WIDTH:0.608824
G1 X155.17 Y103.039 E.00317
;WIDTH:0.654913
G1 X155.12 Y103.083 E.00339
;WIDTH:0.701002
G1 X155.07 Y103.126 E.00361
;WIDTH:0.747091
G1 X155.02 Y103.17 E.0039
;WIDTH:0.79318
G1 X154.969 Y103.214 E.0042
G1 X155.036 Y103.215 E.00418
;WIDTH:0.747091
G1 X155.103 Y103.216 E.00392
;WIDTH:0.701002
G1 X155.169 Y103.217 E.00361
;WIDTH:0.654913
G1 X155.236 Y103.218 E.00341
;WIDTH:0.608824
G1 X155.302 Y103.219 E.00311
;WIDTH:0.562735
G1 X155.369 Y103.22 E.0029
;WIDTH:0.516646
G1 X155.435 Y103.221 E.0026
;WIDTH:0.470556
G1 X155.502 Y103.222 E.00238
;WIDTH:0.431384
G1 X156.009 Y103.041 E.01739
;WIDTH:0.458769
G1 X156.586 Y102.773 E.022
;WIDTH:0.486153
G1 X157.163 Y102.504 E.02346
;WIDTH:0.520267
G1 X157.703 Y102.181 E.02498
;WIDTH:0.55438
G1 X158.242 Y101.858 E.02672
;WIDTH:0.568844
G1 X158.738 Y101.497 E.02683
G1 X158.926 Y101.393 E.0094
;WIDTH:0.519229
G1 X159.115 Y101.289 E.00854
;WIDTH:0.469614
G1 X159.303 Y101.185 E.00762
;WIDTH:0.419999
G1 X160.282 Y100.314 E.04109
G1 X161.38 Y99.105 E.05121
G1 X161.536 Y99.044 E.00525
G1 X161.698 Y99.169 E.00642
G1 X162.042 Y100.15 E.03259
G1 X162.129 Y100.779 E.01991
G1 X162.09 Y101.6 E.02577
G1 X161.89 Y102.302 E.02289
G1 X158.253 Y109.123 E.24237
G1 X158.602 Y109.608 E.01873
G1 X158.98 Y110.439 E.02862
G1 X159.192 Y111.364 E.02975
G1 X159.215 Y112.239 E.02744
G1 X159.059 Y113.152 E.02904
G1 X154.67 Y121.393 E.29275
G1 X154.242 Y121.894 E.02066
G1 X153.605 Y122.357 E.02469
G1 X152.921 Y122.61 E.02287
G1 X152.102 Y122.673 E.02575
G1 X151.476 Y122.57 E.01989
G1 X150.895 Y122.317 E.01987
G1 X150.518 Y122.054 E.01441
G1 X150.169 Y121.75 E.01451
G1 X149.783 Y121.231 E.02028
G1 X149.702 Y120.936 E.00959
G1 X148.224 Y113.997 E.22245
G1 X148.299 Y113.804 E.00649
G1 X148.462 Y113.774 E.0052
G1 X149.818 Y113.939 E.04283
G1 X150.871 Y113.9 E.03304
G1 X151.906 Y113.697 E.03307
;WIDTH:0.468756
G1 X152.078 Y113.608 E.00686
;WIDTH:0.517513
G1 X152.249 Y113.52 E.00759
;WIDTH:0.566269
G1 X152.421 Y113.431 E.00843
G1 X152.795 Y113.299 E.01726
;WIDTH:0.527196
G1 X153.169 Y113.167 E.01597
;WIDTH:0.488122
G1 X153.63 Y112.972 E.01853
;WIDTH:0.440696
G1 X154.174 Y112.688 E.0203
;WIDTH:0.480587
G1 X154.216 Y112.637 E.0024
;WIDTH:0.525154
G1 X154.259 Y112.585 E.00271
;WIDTH:0.569721
G1 X154.301 Y112.533 E.00293
;WIDTH:0.614287
G1 X154.344 Y112.482 E.00317
;WIDTH:0.658854
G1 X154.386 Y112.43 E.00342
;WIDTH:0.703421
G1 X154.429 Y112.378 E.00371
;WIDTH:0.747988
G1 X154.472 Y112.327 E.00391
;WIDTH:0.792554
G1 X154.514 Y112.275 E.00417
G1 X154.448 Y112.283 E.00414
;WIDTH:0.747988
G1 X154.383 Y112.292 E.00385
;WIDTH:0.703421
G1 X154.317 Y112.3 E.00365
;WIDTH:0.658854
G1 X154.251 Y112.309 E.00341
;WIDTH:0.614287
G1 X154.185 Y112.317 E.00316
;WIDTH:0.569721
G1 X154.119 Y112.325 E.00291
;WIDTH:0.525154
G1 X154.054 Y112.334 E.00263
;WIDTH:0.480587
G1 X153.988 Y112.342 E.00242
;WIDTH:0.440742
G1 X153.461 Y112.612 E.01959
;WIDTH:0.483973
G1 X153.103 Y112.717 E.01368
;WIDTH:0.527204
G1 X152.745 Y112.822 E.01502
;WIDTH:0.53973
G1 X152.238 Y112.919 E.02132
G1 X152.088 Y112.902 E.00624
;WIDTH:0.49982
G1 X151.937 Y112.884 E.00578
;WIDTH:0.45991
G1 X151.786 Y112.866 E.00527
;WIDTH:0.419999
G1 X151.076 Y112.877 E.02226
G1 X149.929 Y112.718 E.03631
G1 X148.757 Y112.371 E.03832
G1 X147.684 Y111.857 E.0373
G1 X146.702 Y111.184 E.03733
G1 X145.841 Y110.374 E.03706
G1 X145.507 Y110.001 E.0157
G1 X145.129 Y109.646 E.01626
G1 X144.692 Y109.314 E.01721
G1 X144.173 Y109.136 E.0172
G1 X143.668 Y109.019 E.01625
G1 X143.172 Y108.949 E.01571
G1 X142.764 Y108.856 E.01312
M204 S1000
;WIPE_START
G1 F8640
G1 X142.691 Y108.84 E-.01726
G1 X142.047 Y108.693 E-.15253
G1 X141.387 Y108.433 E-.16379
G1 X140.914 Y108.243 E-.1177
G1 X139.914 Y107.653 E-.2681
G1 X138.992 Y106.9 E-.27487
G1 X138.975 Y106.881 E-.00575
;WIPE_END
G1 Z.4 F720
G1 X140.762 Y111.836 F10800
G1 Z.2 F720
G1 E1 F2100
M204 S800
;WIDTH:0.504015
G1 F1200
G1 X140.915 Y111.71 E.0076
;WIDTH:0.504158
G1 X141.352 Y111.473 E.01907
;WIDTH:0.506922
G1 X141.82 Y111.335 E.01882
G1 X142.159 Y111.345 E.01308
;WIDTH:0.463461
G1 X142.498 Y111.355 E.01186
;WIDTH:0.419999
G1 X142.746 Y111.381 E.00782
G1 X143.258 Y111.555 E.01696
G1 X143.582 Y111.729 E.01153
G1 X143.936 Y112.016 E.01429
;WIDTH:0.454185
G1 X144.122 Y112.258 E.01044
;WIDTH:0.488371
G1 X144.309 Y112.5 E.01133
;WIDTH:0.522556
G1 X144.495 Y112.742 E.01217
;WIDTH:0.543865
G1 X144.657 Y113.219 E.02098
;WIDTH:0.54627
G1 X144.707 Y113.692 E.01991
G1 X144.661 Y114.165 E.01989
;WIDTH:0.548085
G1 X144.519 Y114.645 E.02103
;WIDTH:0.555304
G1 X144.302 Y115.059 E.01991
;WIDTH:0.560995
G1 X143.938 Y115.484 E.02411
;WIDTH:0.563116
G1 X143.447 Y115.837 E.02616
G1 X143.173 Y115.973 E.01323
;WIDTH:0.558669
G1 X142.75 Y116.097 E.0189
;WIDTH:0.552904
G1 X142.243 Y116.142 E.02158
;WIDTH:0.554022
G1 X141.626 Y116.048 E.02652
;WIDTH:0.572284
G1 X141.179 Y115.888 E.0209
G1 X140.841 Y115.674 E.01761
;WIDTH:0.552971
G1 X140.563 Y115.432 E.01563
;WIDTH:0.532116
G1 X140.247 Y115.044 E.02035
;WIDTH:0.526373
G1 X140.031 Y114.628 E.01884
;WIDTH:0.519446
G1 X139.899 Y114.183 E.01839
;WIDTH:0.513435
G1 X139.854 Y113.722 E.01812
;WIDTH:0.509065
G1 X139.898 Y113.259 E.01803
;WIDTH:0.505108
G1 X140.043 Y112.778 E.01931
;WIDTH:0.505509
G1 X140.281 Y112.343 E.01907
G1 X140.553 Y112.01 E.01654
;WIDTH:0.504015
G1 X140.704 Y111.884 E.00754
M204 S1000
;WIPE_START
G1 F8640
G1 X140.762 Y111.836 E-.01738
G1 X140.915 Y111.71 E-.04577
G1 X141.352 Y111.473 E-.11479
G1 X141.82 Y111.335 E-.11266
G1 X142.159 Y111.345 E-.07831
G1 X142.498 Y111.355 E-.07831
G1 X142.746 Y111.381 E-.05758
G1 X143.258 Y111.555 E-.12486
G1 X143.582 Y111.729 E-.08492
G1 X143.936 Y112.016 E-.10523
G1 X144.122 Y112.258 E-.07048
G1 X144.309 Y112.5 E-.07062
G1 X144.412 Y112.634 E-.03909
;WIPE_END
G1 Z.4 F720
G1 X136.759 Y102.619 F10800
G1 Z.2 F720
G1 E1 F2100
M204 S800
;WIDTH:0.792556
G1 F1200
G1 X136.767 Y102.799 E.01123
M204 S1000
;WIPE_START
G1 F8640
G1 X136.759 Y102.619 E-.0416
;WIPE_END
G1 E-.9584 F2100
G1 Z.4 F720
G1 X144.167 Y97.898 F10800
G1 Z.2 F720
G1 E1 F2100
M204 S800
;WIDTH:0.793178
G1 F1200
G1 X144.045 Y97.383 E.03302
M204 S1000
;WIPE_START
G1 F8640
G1 X144.167 Y97.898 E-.12221
;WIPE_END
G1 E-.87779 F2100
G1 Z.4 F720
G1 X152.376 Y103.733 F10800
G1 Z.2 F720
G1 E1 F2100
M204 S800
;WIDTH:0.807166
G1 F1200
G1 X151.665 Y103.799 E.04538
G1 X150.749 Y103.824 E.05823
;WIDTH:0.8279
G1 X149.644 Y103.693 E.07263
G1 X148.797 Y103.494 E.05679
;WIDTH:0.783418
G1 X148.605 Y103.425 E.01256
;WIDTH:0.743482
G1 X148.412 Y103.356 E.01194
;WIDTH:0.703545
G1 X148.219 Y103.287 E.01126
;WIDTH:0.663609
G1 X148.026 Y103.219 E.01056
G1 X147.831 Y103.08 E.01236
;WIDTH:0.703529
